assets/technologyinnovationinstitutefalcon/original.svg

<svg viewBox="0 0 24 24" xmlns="http://www.w3.org/2000/svg"><g fill="#6400ff"><path d="m11.098 7.563h-6.348v2.207h1.77v6.668h2.807v-6.668h1.77v-2.207zm3.714 0h-2.807v8.875h2.807zm4.621 0h-2.807v8.875h2.807z"/><path d="m12 24v-1.055c3.01 0 5.613-1.079 7.737-3.208s3.209-4.727 3.209-7.737-1.08-5.607-3.209-7.736c-2.128-2.13-4.732-3.21-7.736-3.21v-1.054c3.294 0 6.148 1.184 8.482 3.518s3.517 5.188 3.517 8.482c0 3.295-1.183 6.155-3.518 8.483s-5.182 3.517-8.481 3.517z"/></g></svg>

<svg xmlns="http://www.w3.org/2000/svg" viewBox="0 0 24 24"><title>Technology Innovation Institute (Falcon)</title><path fill="#6400ff" d="M11.098 7.563H4.75V9.77h1.77v6.668h2.807V9.77h1.77V7.563zm3.714 0h-2.807v8.875h2.807zm4.621 0h-2.807v8.875h2.807z"/><path fill="#6400ff" d="M12 24v-1.055c3.01 0 5.613-1.079 7.737-3.208S22.946 15.01 22.946 12s-1.08-5.607-3.209-7.736c-2.128-2.13-4.732-3.21-7.736-3.21V0c3.294 0 6.148 1.184 8.482 3.518S24 8.706 24 12c0 3.295-1.183 6.155-3.518 8.483S15.3 24 12.001 24z"/></svg>
